svgs/substratum_lite.svg

<svg id="Layer_1" data-name="Layer 1" xmlns="http://www.w3.org/2000/svg" viewBox="0 0 24 24">
  <g>
    <path d="M10.17625,4.35313A1.35312,1.35312,0,0,0,8.82337,3.00026H4.43087A1.35311,1.35311,0,0,0,3.078,4.35313V17.43688a3.54927,3.54927,0,1,0,7.09825-.04446Zm-3.54937,14.784a1.70027,1.70027,0,1,1,1.70028-1.70027A1.70057,1.70057,0,0,1,6.62688,19.13715Z"/>
    <path d="M11.14259,16.73484l5.109-8.84878a1.35315,1.35315,0,0,0-.49525-1.84812l-3.804-2.196a1.34851,1.34851,0,0,0-.90933-.16138,2.30879,2.30879,0,0,1,.09954.67257Z"/>
    <path d="M20.232,12.12878l-2.19649-3.804a1.34438,1.34438,0,0,0-.69673-.59043,2.30207,2.30207,0,0,1-.25028.63488L10.90776,19.07434l8.829-5.09744A1.35326,1.35326,0,0,0,20.232,12.12878Z"/>
    <path d="M20.76781,14.375a2.31835,2.31835,0,0,1-.54792.43872L9.5346,20.98286H19.72512A1.35313,1.35313,0,0,0,21.078,19.63V15.23749A1.34972,1.34972,0,0,0,20.76781,14.375Z"/>
  </g>
</svg>

<svg xmlns="http://www.w3.org/2000/svg" data-name="Layer 1" viewBox="0 0 24 24"><path d="M10.176 4.353A1.353 1.353 0 0 0 8.823 3H4.431a1.353 1.353 0 0 0-1.353 1.353v13.084a3.55 3.55 0 1 0 7.098-.045Zm-3.55 14.784a1.7 1.7 0 1 1 1.701-1.7 1.7 1.7 0 0 1-1.7 1.7Zm4.517-2.402 5.109-8.849a1.353 1.353 0 0 0-.496-1.848l-3.804-2.196a1.349 1.349 0 0 0-.909-.161 2.309 2.309 0 0 1 .1.672Zm9.089-4.606-2.196-3.804a1.344 1.344 0 0 0-.697-.59 2.302 2.302 0 0 1-.25.634l-6.181 10.705 8.829-5.097a1.353 1.353 0 0 0 .495-1.848m.536 2.246a2.318 2.318 0 0 1-.548.439L9.535 20.983h10.19a1.353 1.353 0 0 0 1.353-1.353v-4.393a1.35 1.35 0 0 0-.31-.862"/></svg>
